X: 146
T: Irishman's Heart to the Ladies
T: Jig, A
L: 1/16
M: 6/8
K: A
|: a2| e2c2A2 B2A2F2| A2F2E2 E2F2A2| B2d2c2 B2A2B2| c2B2B2 B4a2| 
e2c2A2 B2A2F2| A2F2E2 E2F2A2| B2d2c2 B2A2B2| c2A2A2 A4:| 
|: B2| c2e2e2 d2f2f2| c2e2e2 e2c2A2| c2e2e2 a4f2| e2c2A2 B4d2| 
c2e2e2 d2f2f2| c2e2e2 e2c2A2| B2d2c2 B2A2B2| c2A2A2 A4:|
